se.svg

<?xml version="1.0" encoding="UTF-8" standalone="no"?>
<!-- Created with Inkscape (http://www.inkscape.org/) -->
<svg
   xmlns:svg="http://www.w3.org/2000/svg"
   xmlns="http://www.w3.org/2000/svg"
   id="svg4395"
   height="700.00000"
   width="1000.0000"
   y="0.00000000"
   x="0.00000000"
   version="1.0">
  <defs
     id="defs3" />
  <g
     id="layer1">
    <rect
       id="rect4431"
       style="fill:#00923f;fill-opacity:1.0000000;stroke:none;stroke-opacity:1.0000000"
       y="0.00000000"
       x="0.00000000"
       height="175.00000"
       width="1000.0000" />
    <rect
       id="rect7491"
       style="fill:#00923f;fill-opacity:1.0000000;stroke:none;stroke-opacity:1.0000000"
       y="350.00000"
       x="0.00000000"
       height="175.00000"
       width="1000.0000" />
    <rect
       id="rect7493"
       style="fill:#f8c300;fill-opacity:1.0000000;stroke:none;stroke-opacity:1.0000000"
       y="175.00000"
       x="0.00000000"
       height="175.00000"
       width="1000.0000" />
    <rect
       id="rect8253"
       style="fill:#f8c300;fill-opacity:1.0000000;stroke:none;stroke-opacity:1.0000000"
       y="525.00000"
       x="0.00000000"
       height="175.00000"
       width="1000.0000" />
    <rect
       id="rect9013"
       style="fill:#28166f;fill-opacity:1.0000000;stroke:none;stroke-opacity:1.0000000"
       y="0.00000000"
       x="0.00000000"
       height="350.00000"
       width="350.00000" />
    <path
       id="path9773"
       style="fill:#ffffff;fill-opacity:1.0000000;stroke:none;stroke-opacity:1.0000000"
       d="M 222.02282,239.72136 L 175.00000,205.55728 L 127.97718,239.72136 L 145.93830,184.44272 L 98.915479,150.27864 L 157.03888,150.27864 L 175.00000,95.000000 L 192.96112,150.27864 L 251.08452,150.27864 L 204.06170,184.44272 L 222.02282,239.72136 z " />
    <path
       id="path11291"
       style="fill:#ffffff;fill-opacity:1.0000000;stroke:none;stroke-opacity:1.0000000"
       d="M 83.511410,322.36068 L 60.000000,305.27864 L 36.488590,322.36068 L 45.469149,294.72136 L 21.957739,277.63932 L 51.019440,277.63932 L 60.000000,250.00000 L 68.980560,277.63932 L 98.042261,277.63932 L 74.530851,294.72136 L 83.511410,322.36068 z " />
    <path
       id="path11293"
       style="fill:#ffffff;fill-opacity:1.0000000;stroke:none;stroke-opacity:1.0000000"
       d="M 313.51141,92.360680 L 290.00000,75.278641 L 266.48859,92.360680 L 275.46915,64.721360 L 251.95774,47.639320 L 281.01944,47.639320 L 290.00000,20.000000 L 298.98056,47.639320 L 328.04226,47.639320 L 304.53085,64.721360 L 313.51141,92.360680 z " />
    <path
       id="path11295"
       style="fill:#ffffff;fill-opacity:1.0000000;stroke:none;stroke-opacity:1.0000000"
       d="M 83.511410,92.360680 L 60.000000,75.278641 L 36.488590,92.360680 L 45.469149,64.721360 L 21.957739,47.639320 L 51.019440,47.639320 L 60.000000,20.000000 L 68.980560,47.639320 L 98.042261,47.639320 L 74.530851,64.721360 L 83.511410,92.360680 z " />
    <path
       id="path11297"
       style="fill:#ffffff;fill-opacity:1.0000000;stroke:none;stroke-opacity:1.0000000"
       d="M 313.51141,322.36068 L 290.00000,305.27864 L 266.48859,322.36068 L 275.46915,294.72136 L 251.95774,277.63932 L 281.01944,277.63932 L 290.00000,250.00000 L 298.98056,277.63932 L 328.04226,277.63932 L 304.53085,294.72136 L 313.51141,322.36068 z " />
  </g>
</svg>

<svg xmlns="http://www.w3.org/2000/svg" height="700" width="1000" version="1.0"><path fill="#00923f" d="M0 0h1000v175H0zM0 350h1000v175H0z"/><path fill="#f8c300" d="M0 175h1000v175H0zM0 525h1000v175H0z"/><path fill="#28166f" d="M0 0h350v350H0z"/><path d="M222.023 239.721L175 205.557l-47.023 34.164 17.961-55.278-47.023-34.164h58.124L175 95l17.961 55.279h58.124l-47.023 34.164 17.96 55.278zM83.511 322.36L60 305.28 36.489 322.36l8.98-27.64-23.511-17.082h29.061L60 250l8.98 27.64h29.062L74.531 294.72l8.98 27.64zM313.511 92.36L290 75.28 266.489 92.36l8.98-27.64-23.511-17.082h29.061L290 20l8.98 27.64h29.062L304.531 64.72l8.98 27.64zM83.511 92.36L60 75.28 36.489 92.36l8.98-27.64L21.958 47.64h29.061L60 20l8.98 27.64h29.062L74.531 64.72l8.98 27.64zM313.511 322.36L290 305.28l-23.511 17.082 8.98-27.64-23.511-17.082h29.061L290 250l8.98 27.64h29.062l-23.511 17.081 8.98 27.64z" fill="#fff"/></svg>
